!!!COM: Bach, Johann Sebastian (disputed)
!!!OTL: Preludium
!!!SCT: BWV 567
!!!SCA: Thematisches-systematisches Verzeichnis der musikalischen Werke von Johann Sebastian Bach (Schmieder 1990)
**kern	**kern	**kern	**kern
*MM60	*MM60	*MM60	*MM60
*k[]	*k[]	*k[]	*k[]
*M3/4	*M3/4	*M3/4	*M3/4
*tb32	*tb32	*tb32	*tb32
=1	=1	=1	=1
2.CC	2.r	2.r	8r
.	.	.	8gg
.	.	.	8ff
.	.	.	8ee
.	.	.	8dd
.	.	.	8cc
=2	=2	=2	=2
4DD	2.r	8r	4cc
.	.	8a	.
4GG	.	8g	4b
.	.	8f	.
4CC	.	8e	4cc
.	.	8d	.
=3	=3	=3	=3
2GG	8r	4e	4cc
.	8G	.	.
.	8F	4d	4b
.	8E	.	.
4FF	8D	4r	4r
.	8C	.	.
=4	=4	=4	=4
2.GG	4C	2.r	8r
.	.	.	8aa
.	2BB	.	8gg
.	.	.	8ff
.	.	.	8ee
.	.	.	8ff
=5	=5	=5	=5
2.CC	4C	8r	2.ee
.	.	8dd	.
.	4r	8cc	.
.	.	8b-	.
.	4r	8a	.
.	.	8b-	.
=6	=6	=6	=6
2.FF	8r	2.a	2.ff
.	8g	.	.
.	8f	.	.
.	8e	.	.
.	8d	.	.
.	8e	.	.
=7	=7	=7	=7
2.FF#	8d	2.cc	2.aa
.	8e-	.	.
.	8d	.	.
.	8c	.	.
.	8B	.	.
.	8c	.	.
=8	=8	=8	=8
2FF	8B	8dd	[2.gg
.	8A	8cc	.
.	8B	8dd	.
.	8G	8b	.
4GG	8A	8cc	.
.	8B	8dd	.
=9	=9	=9	=9
4CC	4c	4ee	8gg]
.	.	.	8ff
4r	8r	8r	8ee
.	8C	8b-	8dd
4r	8D	8a	8cc
.	8E	8g	8b-
=10	=10	=10	=10
2.r	4.F	4.f	8a
.	.	.	8cc#
.	.	.	[2dd
.	8E	8g	.
.	8F	8a	.
.	8G	8b-	.
=11	=11	=11	=11
2.r	4.F	4.a	8dd]
.	.	.	8cc
.	.	.	[2ff
.	8G	8b	.
.	8A	8cc	.
.	8B	8dd	.
=12	=12	=12	=12
2.r	4.c	4.g	8ff]
.	.	.	8dd#
.	.	.	2ee
.	8B	8g#	.
.	8c	8a	.
.	[8d	8b	.
=13	=13	=13	=13
2.r	8d]	4.g#	4.b
.	16c	.	.
.	16B	.	.
.	8e	.	.
.	8d	8g#	8ff
.	8c	8a	8ee
.	8B	[8b	[8dd
=14	=14	=14	=14
2.r	4.c	8b]	8dd]
.	.	8g#	8b
.	.	[2a	8cc
.	8G#	.	8b
.	8A	.	8cc
.	8D#	.	8ff#
=15	=15	=15	=15
2.r	2E	2a]	8b
.	.	.	8ee
.	.	.	8dd
.	.	.	8cc
.	4EE	4g#	8b
.	.	.	8cc
=16	=16	=16	=16
2.AA	8AA	4a	4a
.	8e	.	.
.	8d	4r	4r
.	8c	.	.
.	8B	4r	4r
.	8A	.	.
=17	=17	=17	=17
4BB-	4A	8r	2.r
.	.	8f	.
4E	4G#	8e	.
.	.	8d	.
4AA	4A	8c	.
.	.	8B	.
=18	=18	=18	=18
[2.EE	4A	4c	8r
.	.	.	8ee
.	4G#	4B	8dd
.	.	.	8cc
.	4A	4c	8b
.	.	.	8a
=19	=19	=19	=19
2.EE]	4.B	4.d	4a
.	.	.	2g#
.	8d	8f	.
.	8c	8e	.
.	8B	8d	.
=20	=20	=20	=20
4AA	4A	4c	8a
.	.	.	8b
4r	4r	4r	8cc
.	.	.	8cc#
4AA	4A	4g	8.cc#T
.	.	.	32b
.	.	.	32cc#
=21	=21	=21	=21
4D	4A	4f	8dd
.	.	.	8ee
4r	4r	4r	8ff
.	.	.	8ff#
4DD	4c	4a	8.ff#T
.	.	.	32ee
.	.	.	32ff#
=22	=22	=22	=22
2EE	4B	2.g	8gg
.	.	.	8ff
.	4c	.	8ee
.	.	.	8aa
4AA	4c#	.	8gg
.	.	.	8aa
=23	=23	=23	=23
4DD	2.d	4a	8ff
.	.	.	8ee
4GG	.	2b	8dd
.	.	.	8gg
4GG	.	.	8ff
.	.	.	8gg
=24	=24	=24	=24
8C	4c	4g	4ee
8c	.	.	.
8E	4r	4r	4r
8G	.	.	.
4BB-	4c	4g	4ee
=25	=25	=25	=25
8AA	4c	4a	4ff
8A	.	.	.
8F	4r	4r	4r
8A	.	.	.
8C	4r	4r	4r
8F	.	.	.
=26	=26	=26	=26
8AA-	4e-	4cc	4ff#
8A-	.	.	.
8E-	4r	4r	4r
8A-	.	.	.
8AA-	4r	4r	4r
8A-	.	.	.
=27	=27	=27	=27
[2.GG	8e	8cc	[2.gg
.	8d	8b	.
.	8e	8cc	.
.	8B	8dd	.
.	8c	8ee	.
.	8d	8b	.
=28	=28	=28	=28
2.GG]	8e	8cc	2.gg_
.	8a	8ff	.
.	8g	8ee	.
.	8f	8dd	.
.	8e	8cc	.
.	8d	8b	.
=29	=29	=29	=29
8C	8e	2cc	8gg]
8A	8f	.	8ff
4G	4g	.	4ee
4GG	4f	4b	4dd
=30	=30	=30	=30
[2.CC	4e	4g	8cc
.	.	.	8ff
.	4r	4r	8ee
.	.	.	8dd
.	4r	4r	8cc
.	.	.	8b
=31	=31	=31	=31
2.CC_	2.r	8r	[2.cc
.	.	8b-	.
.	.	8a	.
.	.	8g	.
.	.	8f	.
.	.	8e	.
=32	=32	=32	=32
2.CC_	8r	4f	2.cc_
.	8d	.	.
.	8c	2e	.
.	8B-	.	.
.	8A	.	.
.	8G	.	.
=33	=33	=33	=33
2.CC_	16A	16f	2cc_
.	16G	16e	.
.	16A	16f	.
.	16G	16e	.
.	8A	8f	.
.	8G	8e	.
.	8A	8f	8cc]
.	8F	8d	8b
=34	=34	=34	=34
2CC]	4F	4d	4b
.	4E	4e	4cc
4r	4r	4r	4r
==	==	==	==
*-	*-	*-	*-
!!!ENC: Peter van Kranenburg (peter@musical-style-recognition.net)
!!!END: 2006-11-9
